X: 0
T: Fair Isle School Centenary
R: march
M: 4/4
L: 1/8
K: Dmaj
GFE|"D"D2F3/G/ A3A|"G"B2dB "D"A2de|f2f3/g/ afed|"A"e2e3/f/ eGFE|
"D"D2F3/G/ A3A|"G"B2dB "D"A2de|f3/g/af "A"egfe|"D"d2d3/e/ d:|
efg|:"D"a2fg a2fe|"G"dB/B/Bc d2de|"D"f2f3/g/ afed|"A"e2e3/f/ eGFE|
"D"D2F3/G/ A3A|"G"B2dB "D"A2de|f3/g/af "A"egfe|1 "D"d2d3/e/ defg:|2"D"d2d3/e/d|]